COLOR/action 16/16/dialog-align-and-distribute.svg

<svg viewBox="0 0 16 16" xmlns="http://www.w3.org/2000/svg"><path d="m4 14v-3h7v3zm0-9v-3h5v3z" fill="#1a7fd4"/><path d="m2 2v12h1v-12z" fill="#e95420"/><path d="m4 6.5h10v3h-10z" fill="#1a7fd4"/><path d="m4 4.5v.5h5v-.5zm0 4.5v.5h10v-.5zm-2 4.5v.5h1v-.5zm2 0v.5h7v-.5z" opacity=".2"/><path d="m2 2v.5h1v-.5zm2 0v.5h5v-.5zm0 4.5v.5h10v-.5zm0 4.5v.5h7v-.5z" fill="#fff" opacity=".3"/></svg>

<?xml version="1.0" encoding="UTF-8" standalone="no"?>
<svg
   xmlns:dc="http://purl.org/dc/elements/1.1/"
   xmlns:cc="http://creativecommons.org/ns#"
   xmlns:rdf="http://www.w3.org/1999/02/22-rdf-syntax-ns#"
   xmlns:svg="http://www.w3.org/2000/svg"
   xmlns="http://www.w3.org/2000/svg"
   xmlns:sodipodi="http://sodipodi.sourceforge.net/DTD/sodipodi-0.dtd"
   xmlns:inkscape="http://www.inkscape.org/namespaces/inkscape"
   viewBox="0 0 16 16"
   version="1.1"
   id="svg6"
   sodipodi:docname="dialog-align-and-distribute.svg"
   inkscape:version="0.92.4 (5da689c313, 2019-01-14)">
  <metadata
     id="metadata12">
    <rdf:RDF>
      <cc:Work
         rdf:about="">
        <dc:format>image/svg+xml</dc:format>
        <dc:type
           rdf:resource="http://purl.org/dc/dcmitype/StillImage" />
      </cc:Work>
    </rdf:RDF>
  </metadata>
  <defs
     id="defs10" />
  <sodipodi:namedview
     pagecolor="#ffffff"
     bordercolor="#666666"
     borderopacity="1"
     objecttolerance="10"
     gridtolerance="10"
     guidetolerance="10"
     inkscape:pageopacity="0"
     inkscape:pageshadow="2"
     inkscape:window-width="1920"
     inkscape:window-height="1016"
     id="namedview8"
     showgrid="true"
     inkscape:zoom="41.7193"
     inkscape:cx="1.92173"
     inkscape:cy="9.8578644"
     inkscape:window-x="0"
     inkscape:window-y="27"
     inkscape:window-maximized="1"
     inkscape:current-layer="svg6">
    <inkscape:grid
       type="xygrid"
       id="grid843" />
  </sodipodi:namedview>
  <path
     d="m 4,14 v -3 h 7 v 3 z M 4,5 V 2 h 5 v 3 z"
     id="path2"
     inkscape:connector-curvature="0"
     style="fill:#1a7fd4"
     sodipodi:nodetypes="cccccccccc" />
  <path
     d="m2 2v12h1v-12z"
     fill="#e95420"
     id="path4" />
  <rect
     style="opacity:1;fill:#1a7fd4;fill-opacity:1;stroke:none;stroke-width:1;stroke-linecap:round;stroke-linejoin:round;stroke-miterlimit:4;stroke-dasharray:none;stroke-opacity:0.4"
     id="rect845"
     width="10"
     height="3"
     x="4"
     y="6.5" />
  <path
     style="fill:#000000;fill-opacity:1;opacity:0.2"
     d="M 4 4.5 L 4 5 L 9 5 L 9 4.5 L 4 4.5 z M 4 9 L 4 9.5 L 14 9.5 L 14 9 L 4 9 z M 2 13.5 L 2 14 L 3 14 L 3 13.5 L 2 13.5 z M 4 13.5 L 4 14 L 11 14 L 11 13.5 L 4 13.5 z "
     id="path815" />
  <path
     style="fill:#ffffff;fill-opacity:1;opacity:0.3"
     d="M 2 2 L 2 2.5 L 3 2.5 L 3 2 L 2 2 z M 4 2 L 4 2.5 L 9 2.5 L 9 2 L 4 2 z M 4 6.5 L 4 7 L 14 7 L 14 6.5 L 4 6.5 z M 4 11 L 4 11.5 L 11 11.5 L 11 11 L 4 11 z "
     id="path822" />
</svg>
